X: 32240
T: Pibddawns Abertawe
R: hornpipe
M: 4/4
K: Dmajor
|:A2|DFAF BAFD|dAeA fdAF|GBdg FAdf|edcB AGFE|
DFAF BAFD|dAeA fdAF|GBdg fedc|d2f2 d2:|
|:cd|ecAc fdAd|(3gfe(3fed ecA2|(3gfe(3fed edcd|edcB AGFE|
DFAF BAFD|dAeA fdAF|GBdg fedc|d2 f2 d2:|

